build/img/item-rating.svg

<svg width="136" height="24" viewBox="0 0 136 24" fill="none" xmlns="http://www.w3.org/2000/svg">
<g opacity="0.3">
<path fill-rule="evenodd" clip-rule="evenodd" d="M124 18.27L128.151 20.7754C128.908 21.2325 129.843 20.5535 129.642 19.692L128.54 14.97L132.209 11.7919C132.877 11.2127 132.52 10.1144 131.638 10.0396L126.81 9.63L124.921 5.17237C124.576 4.35934 123.424 4.35934 123.079 5.17237L121.19 9.63L116.362 10.0396C115.48 10.1144 115.123 11.2127 115.791 11.7919L119.46 14.97L118.358 19.692C118.157 20.5535 119.092 21.2325 119.849 20.7754L124 18.27Z" fill="#9B8869"/>
<mask id="mask0" mask-type="alpha" maskUnits="userSpaceOnUse" x="115" y="4" width="18" height="17">
<path fill-rule="evenodd" clip-rule="evenodd" d="M124 18.27L128.151 20.7754C128.908 21.2325 129.843 20.5535 129.642 19.692L128.54 14.97L132.209 11.7919C132.877 11.2127 132.52 10.1144 131.638 10.0396L126.81 9.63L124.921 5.17237C124.576 4.35934 123.424 4.35934 123.079 5.17237L121.19 9.63L116.362 10.0396C115.48 10.1144 115.123 11.2127 115.791 11.7919L119.46 14.97L118.358 19.692C118.157 20.5535 119.092 21.2325 119.849 20.7754L124 18.27Z" fill="white"/>
</mask>
<g mask="url(#mask0)">
<rect x="112" width="24" height="24" fill="#9B8869"/>
</g>
</g>
<path fill-rule="evenodd" clip-rule="evenodd" d="M96 18.27L100.151 20.7754C100.908 21.2325 101.843 20.5535 101.642 19.692L100.54 14.97L104.209 11.7919C104.877 11.2127 104.52 10.1144 103.638 10.0396L98.81 9.63L96.9207 5.17237C96.5761 4.35934 95.4239 4.35934 95.0793 5.17237L93.19 9.63L88.3616 10.0396C87.4802 10.1144 87.1228 11.2127 87.7914 11.7919L91.46 14.97L90.3584 19.692C90.1575 20.5535 91.0917 21.2325 91.849 20.7754L96 18.27Z" fill="#9B8869"/>
<mask id="mask1" mask-type="alpha" maskUnits="userSpaceOnUse" x="87" y="4" width="18" height="17">
<path fill-rule="evenodd" clip-rule="evenodd" d="M96 18.27L100.151 20.7754C100.908 21.2325 101.843 20.5535 101.642 19.692L100.54 14.97L104.209 11.7919C104.877 11.2127 104.52 10.1144 103.638 10.0396L98.81 9.63L96.9207 5.17237C96.5761 4.35934 95.4239 4.35934 95.0793 5.17237L93.19 9.63L88.3616 10.0396C87.4802 10.1144 87.1228 11.2127 87.7914 11.7919L91.46 14.97L90.3584 19.692C90.1575 20.5535 91.0917 21.2325 91.849 20.7754L96 18.27Z" fill="white"/>
</mask>
<g mask="url(#mask1)">
<rect x="84" width="24" height="24" fill="#9B8869"/>
</g>
<path fill-rule="evenodd" clip-rule="evenodd" d="M68 18.27L72.151 20.7754C72.9083 21.2325 73.8425 20.5535 73.6416 19.692L72.54 14.97L76.2086 11.7919C76.8772 11.2127 76.5198 10.1144 75.6384 10.0396L70.81 9.63L68.9207 5.17237C68.5761 4.35934 67.4239 4.35934 67.0793 5.17237L65.19 9.63L60.3616 10.0396C59.4802 10.1144 59.1228 11.2127 59.7914 11.7919L63.46 14.97L62.3584 19.692C62.1575 20.5535 63.0917 21.2325 63.849 20.7754L68 18.27Z" fill="#9B8869"/>
<mask id="mask2" mask-type="alpha" maskUnits="userSpaceOnUse" x="59" y="4" width="18" height="17">
<path fill-rule="evenodd" clip-rule="evenodd" d="M68 18.27L72.151 20.7754C72.9083 21.2325 73.8425 20.5535 73.6416 19.692L72.54 14.97L76.2086 11.7919C76.8772 11.2127 76.5198 10.1144 75.6384 10.0396L70.81 9.63L68.9207 5.17237C68.5761 4.35934 67.4239 4.35934 67.0793 5.17237L65.19 9.63L60.3616 10.0396C59.4802 10.1144 59.1228 11.2127 59.7914 11.7919L63.46 14.97L62.3584 19.692C62.1575 20.5535 63.0917 21.2325 63.849 20.7754L68 18.27Z" fill="white"/>
</mask>
<g mask="url(#mask2)">
<rect x="56" width="24" height="24" fill="#9B8869"/>
</g>
<path fill-rule="evenodd" clip-rule="evenodd" d="M40 18.27L44.151 20.7754C44.9083 21.2325 45.8425 20.5535 45.6416 19.692L44.54 14.97L48.2086 11.7919C48.8772 11.2127 48.5198 10.1144 47.6384 10.0396L42.81 9.63L40.9207 5.17237C40.5761 4.35934 39.4239 4.35934 39.0793 5.17237L37.19 9.63L32.3616 10.0396C31.4802 10.1144 31.1228 11.2127 31.7914 11.7919L35.46 14.97L34.3584 19.692C34.1575 20.5535 35.0917 21.2325 35.849 20.7754L40 18.27Z" fill="#9B8869"/>
<mask id="mask3" mask-type="alpha" maskUnits="userSpaceOnUse" x="31" y="4" width="18" height="17">
<path fill-rule="evenodd" clip-rule="evenodd" d="M40 18.27L44.151 20.7754C44.9083 21.2325 45.8425 20.5535 45.6416 19.692L44.54 14.97L48.2086 11.7919C48.8772 11.2127 48.5198 10.1144 47.6384 10.0396L42.81 9.63L40.9207 5.17237C40.5761 4.35934 39.4239 4.35934 39.0793 5.17237L37.19 9.63L32.3616 10.0396C31.4802 10.1144 31.1228 11.2127 31.7914 11.7919L35.46 14.97L34.3584 19.692C34.1575 20.5535 35.0917 21.2325 35.849 20.7754L40 18.27Z" fill="white"/>
</mask>
<g mask="url(#mask3)">
<rect x="28" width="24" height="24" fill="#9B8869"/>
</g>
<path fill-rule="evenodd" clip-rule="evenodd" d="M12 18.27L16.151 20.7754C16.9083 21.2325 17.8425 20.5535 17.6416 19.692L16.54 14.97L20.2086 11.7919C20.8772 11.2127 20.5198 10.1144 19.6384 10.0396L14.81 9.63L12.9207 5.17237C12.5761 4.35934 11.4239 4.35934 11.0793 5.17237L9.19 9.63L4.36163 10.0396C3.4802 10.1144 3.1228 11.2127 3.79139 11.7919L7.46 14.97L6.35841 19.692C6.15745 20.5535 7.09168 21.2325 7.849 20.7754L12 18.27Z" fill="#9B8869"/>
<mask id="mask4" mask-type="alpha" maskUnits="userSpaceOnUse" x="3" y="4" width="18" height="17">
<path fill-rule="evenodd" clip-rule="evenodd" d="M12 18.27L16.151 20.7754C16.9083 21.2325 17.8425 20.5535 17.6416 19.692L16.54 14.97L20.2086 11.7919C20.8772 11.2127 20.5198 10.1144 19.6384 10.0396L14.81 9.63L12.9207 5.17237C12.5761 4.35934 11.4239 4.35934 11.0793 5.17237L9.19 9.63L4.36163 10.0396C3.4802 10.1144 3.1228 11.2127 3.79139 11.7919L7.46 14.97L6.35841 19.692C6.15745 20.5535 7.09168 21.2325 7.849 20.7754L12 18.27Z" fill="white"/>
</mask>
<g mask="url(#mask4)">
<rect width="24" height="24" fill="#9B8869"/>
</g>
</svg>

<svg width="136" height="24" fill="none" xmlns="http://www.w3.org/2000/svg"><g opacity=".3"><path fill-rule="evenodd" clip-rule="evenodd" d="M124 18.27l4.151 2.505c.757.458 1.692-.221 1.491-1.083l-1.102-4.722 3.669-3.178c.668-.58.311-1.678-.571-1.752l-4.828-.41-1.889-4.458c-.345-.813-1.497-.813-1.842 0L121.19 9.63l-4.828.41c-.882.074-1.239 1.173-.571 1.752l3.669 3.178-1.102 4.722c-.201.861.734 1.54 1.491 1.083L124 18.27z" fill="#9B8869"/><mask id="a" maskUnits="userSpaceOnUse" x="115" y="4" width="18" height="17"><path fill-rule="evenodd" clip-rule="evenodd" d="M124 18.27l4.151 2.505c.757.458 1.692-.221 1.491-1.083l-1.102-4.722 3.669-3.178c.668-.58.311-1.678-.571-1.752l-4.828-.41-1.889-4.458c-.345-.813-1.497-.813-1.842 0L121.19 9.63l-4.828.41c-.882.074-1.239 1.173-.571 1.752l3.669 3.178-1.102 4.722c-.201.861.734 1.54 1.491 1.083L124 18.27z" fill="#fff"/></mask><g mask="url(#a)"><path fill="#9B8869" d="M112 0h24v24h-24z"/></g></g><path fill-rule="evenodd" clip-rule="evenodd" d="M96 18.27l4.151 2.505c.757.458 1.692-.221 1.491-1.083l-1.102-4.722 3.669-3.178c.668-.58.311-1.678-.571-1.752l-4.828-.41-1.89-4.458c-.344-.813-1.496-.813-1.84 0L93.19 9.63l-4.828.41c-.882.074-1.24 1.173-.57 1.752l3.668 3.178-1.102 4.722c-.2.861.734 1.54 1.491 1.083L96 18.27z" fill="#9B8869"/><mask id="b" maskUnits="userSpaceOnUse" x="87" y="4" width="18" height="17"><path fill-rule="evenodd" clip-rule="evenodd" d="M96 18.27l4.151 2.505c.757.458 1.692-.221 1.491-1.083l-1.102-4.722 3.669-3.178c.668-.58.311-1.678-.571-1.752l-4.828-.41-1.89-4.458c-.344-.813-1.496-.813-1.84 0L93.19 9.63l-4.828.41c-.882.074-1.24 1.173-.57 1.752l3.668 3.178-1.102 4.722c-.2.861.734 1.54 1.491 1.083L96 18.27z" fill="#fff"/></mask><g mask="url(#b)"><path fill="#9B8869" d="M84 0h24v24H84z"/></g><path fill-rule="evenodd" clip-rule="evenodd" d="M68 18.27l4.151 2.505c.757.458 1.692-.221 1.49-1.083L72.54 14.97l3.669-3.178c.668-.58.31-1.678-.57-1.752l-4.829-.41-1.89-4.458c-.344-.813-1.496-.813-1.84 0L65.19 9.63l-4.828.41c-.882.074-1.24 1.173-.57 1.752l3.668 3.178-1.102 4.722c-.2.861.734 1.54 1.491 1.083L68 18.27z" fill="#9B8869"/><mask id="c" maskUnits="userSpaceOnUse" x="59" y="4" width="18" height="17"><path fill-rule="evenodd" clip-rule="evenodd" d="M68 18.27l4.151 2.505c.757.458 1.692-.221 1.49-1.083L72.54 14.97l3.669-3.178c.668-.58.31-1.678-.57-1.752l-4.829-.41-1.89-4.458c-.344-.813-1.496-.813-1.84 0L65.19 9.63l-4.828.41c-.882.074-1.24 1.173-.57 1.752l3.668 3.178-1.102 4.722c-.2.861.734 1.54 1.491 1.083L68 18.27z" fill="#fff"/></mask><g mask="url(#c)"><path fill="#9B8869" d="M56 0h24v24H56z"/></g><path fill-rule="evenodd" clip-rule="evenodd" d="M40 18.27l4.151 2.505c.757.458 1.691-.221 1.49-1.083L44.54 14.97l3.669-3.178c.668-.58.31-1.678-.57-1.752l-4.829-.41-1.89-4.458c-.344-.813-1.496-.813-1.84 0L37.19 9.63l-4.828.41c-.882.074-1.24 1.173-.57 1.752l3.668 3.178-1.102 4.722c-.2.861.734 1.54 1.491 1.083L40 18.27z" fill="#9B8869"/><mask id="d" maskUnits="userSpaceOnUse" x="31" y="4" width="18" height="17"><path fill-rule="evenodd" clip-rule="evenodd" d="M40 18.27l4.151 2.505c.757.458 1.691-.221 1.49-1.083L44.54 14.97l3.669-3.178c.668-.58.31-1.678-.57-1.752l-4.829-.41-1.89-4.458c-.344-.813-1.496-.813-1.84 0L37.19 9.63l-4.828.41c-.882.074-1.24 1.173-.57 1.752l3.668 3.178-1.102 4.722c-.2.861.734 1.54 1.491 1.083L40 18.27z" fill="#fff"/></mask><g mask="url(#d)"><path fill="#9B8869" d="M28 0h24v24H28z"/></g><path fill-rule="evenodd" clip-rule="evenodd" d="M12 18.27l4.151 2.505c.757.458 1.692-.221 1.49-1.083L16.54 14.97l3.669-3.178c.668-.58.31-1.678-.57-1.752l-4.829-.41-1.89-4.458c-.344-.813-1.496-.813-1.84 0L9.19 9.63l-4.828.41c-.882.074-1.24 1.173-.57 1.752L7.46 14.97l-1.102 4.722c-.2.861.734 1.54 1.491 1.083L12 18.27z" fill="#9B8869"/><mask id="e" maskUnits="userSpaceOnUse" x="3" y="4" width="18" height="17"><path fill-rule="evenodd" clip-rule="evenodd" d="M12 18.27l4.151 2.505c.757.458 1.692-.221 1.49-1.083L16.54 14.97l3.669-3.178c.668-.58.31-1.678-.57-1.752l-4.829-.41-1.89-4.458c-.344-.813-1.496-.813-1.84 0L9.19 9.63l-4.828.41c-.882.074-1.24 1.173-.57 1.752L7.46 14.97l-1.102 4.722c-.2.861.734 1.54 1.491 1.083L12 18.27z" fill="#fff"/></mask><g mask="url(#e)"><path fill="#9B8869" d="M0 0h24v24H0z"/></g></svg>
